!!! OTL: Berkowitz588
!!! Chapter: 1
!!! Section: V
!!! Page: 149
!!! Mode: 
!!! Encoder: AR
**kern
*staff1
=1-
!!pagebreak:original
*clefG2
*k[]
*C:
*M5/8
8e-/L
8f/
8g/J
8b-/L
8a/J
=2
4f#/
8g#/
4r
=3
8e-/L
8fn/
8f#/J
8b/L
8an/J
=4
4cc\
8a-/
4g-/
=5
8dd-\L
8dd-\J
8a-/L
8b-/
8bn/J
=6
!!linebreak:original
8ddn\L
8cc\
8g\J
8b-/L
8g-/J
=7
*M6/8
4a/
8a/
4.e/
=8
*M5/8
8g/L
8b-/
8a/J
4f#/
=9
*M6/8
8g/L
8b-/
16a/L
16f#/JJ
8d#/L
8c#/
8f#/J
=10
*M5/8
[4.dn/
4d/]
==
*-
